X:1
T:Title
%%score { ( 1 3 4 ) | ( 2 5 6 ) }
L:1/8
M:6/8
K:D
V:1 treble nm="Grand Piano"
V:3 treble 
V:4 treble 
V:2 treble 
V:5 treble 
V:6 treble 
V:1
 z3 z2[Q:1/4=100] B/B/ | z3 z B[FB] | z3 z BB | [DB]2 [B,G] [E=c]2 [DB] | .A6 | z =c2- c2 z | %6
 z =c2- c2 z | B6- | B3 z3 | .[FB]6 | z3 z B[=Fd] | d2 =c [EG]2 [^DA] | [DB]6 | z A2- A2 z | %14
 z A2- A z z | G6- |[M:5/8] G3 z2 |[M:1/8] [GB]/d/ |[M:3/4] [Bd]4 z2 | z2 z2 =c[ce] | [=ce]4 z2 | %21
 [Bd]4 z2 | [DB]4 z2 | B4 z2 | A6- | A4 z2 | [FB]4 z2 | z2 z2 B[=Fd] | [Dd]2 [E=c] [EG]2 [^DA] | %29
 z2 z2 B[DB] | [CB]4 z2 | z A- A3 z | G6- |[M:13/16] G/-G/-G/-G/-G/-G-<G z/ z/ z |] %34
V:2
 z3 z2 G/G/ | z3 .G,3 | G,,2 D, z[K:treble] FE | G,,2 D, G,2 D, | z3 .F,3 | %5
 z[K:treble] A2- A2[K:bass] z | z E2- E2 z | z3 .G,3 | G,,2 D, G,2 D, | z3 .G,3 | z3 .G,3 | %11
 =C,2 G, =C2 G, | G,,2 D, G,2 D, | z C2- C2 z | z =C2- C C2 | G,,2 D, G,2 D, |[M:5/8] G,,2 D, G,2 | %17
[M:1/8] z/[K:treble] B/ |[M:3/4][K:bass] z2 z .F,3 | z2 z .F,3 | z2 z .G,3[K:treble][K:bass] | %21
 z2 z .G,3 | z2 z .G,3 | z2 z .G,3 | D,,2 D, F,2 D, | D,,2 D, F,2 D, | z2 z .G,3 | z2 z .G,3 | %28
 =C,2 G, =C2 G, | z2 z .G,3 | z2 z .G,3 | z =C- C3 z | G,,2 D, G,2 D, | %33
[M:13/16] G,,/-G,,/-G,,/-G,,/-G,,/-G,,-<G,, z/ z/ z |] %34
V:3
 x6 | .[FB]6 | .[EB]6 | x6 | =C3 z =c[Gc] | .[F=c]2 D, =C2 [Gc] | .[F=c]2 D, =C2 [^Dc] | %7
 D3- [B,-D]>B,F/E/ | D3 B,2 [GB] | z3 z B[^DB] | .[DB]6 | E3 z3 | z3 B,2 [DB] | %13
 .[CB]2 E, A,2 [CE] | .[DB]2 D, z AD | B,3 B,3- |[M:5/8] B,3 B,2 |[M:1/8] x | %18
[M:3/4] z2 z2 =c[^GB] | [A=c]4 z2 | z2 z2 d[^A^c] | z2 z2 B[B,G] | z2 z B, G[DB] | C3 C A[CE] | %24
 =C3 C3- | C3 =C2 [GB] | z2 z2 B[^DB] | [DB]4 z2 | x6 | [DB]4 z2 | z2 z2 A[CE] | %31
 .[DB]2 D, A,2 [=CD] | B,3 B,3- |[M:13/16] B,/-B,/-B,/-B,/-B,/-B,-<B, z/ z/ z |] %34
V:4
 x6 | z3 .B,3 | z3 .B,3 | x6 | z3 .=C3 | x6 | x6 | x6 | x6 | z3 .B,3 | z3 .B,3 | x6 | x6 | x6 | %14
 z3 .A,3 | x6 |[M:5/8] x5 |[M:1/8] x |[M:3/4] z2 z .=C3 | z2 z .=C3 | z2 z .B,3 | z2 z .B,3 | x6 | %23
 x6 | x6 | x6 | z2 z .B,3 | z2 z .B,3 | x6 | z2 z .B,3 | z2 z .A,3 | x6 | x6 |[M:13/16] x13/2 |] %34
V:5
 x6 | G,,2 D, z GD, | z3 .G,3[K:treble] | x6 | D,,2 D, z AD, | z3[K:treble] F,2[K:bass] D, | %6
 z3 F,2 D, | G,,2 D, z z/ G/D, | x6 | G,,2 D, z ED, | G,,2 D, z GB,, | x6 | x6 | z3 G,2 E, | %14
 z3 z2 D, | x6 |[M:5/8] x5 |[M:1/8] E,[K:treble] |[M:3/4][K:bass] D,,2 .D,2 AD, | D,,2 .D,2 AD, | %20
 G,,2 .D,2[K:treble] B[K:bass]D, | G,,2 .D,2 DD, | G,,2 .D,2 B,D, | A,,2 .E,2 CE, | x6 | x6 | %26
 G,,2 .D,2 ED, | G,,2 .D,2 GD, | x6 | G,,2 .D,2 DD, | A,,2 .E,2 CA,, | z2 z F,2 D, | x6 | %33
[M:13/16] x13/2 |] %34
V:6
 x6 | x6 | x4[K:treble] x2 | x6 | x6 | .D,,3[K:treble] z3[K:bass] | .D,,3 z3 | x6 | x6 | x6 | x6 | %11
 x6 | x6 | .A,,3 z3 | .D,,3 .F,3 | x6 |[M:5/8] x5 |[M:1/8] x/[K:treble] x/ |[M:3/4][K:bass] x6 | %19
 x6 | x4[K:treble] x[K:bass] x | x6 | x6 | x6 | x6 | x6 | x6 | x6 | x6 | x6 | x6 | D,,2 z2 z2 | %32
 x6 |[M:13/16] x13/2 |] %34

